X:251
T:Jerry Beaver's Hat
T:Jerry's Beaver Hat
T:Returned Yank, The
R:jig
D:Noel Hill and Tony MacMahon: I gCnoc na Gra\'i
Z:id:hn-jig-251
M:6/8
K:D
DFA d2e|fdB BAF|AFA dAF|~E3 GFE|
DFA d2e|fdB BAF|AFA dAF|DED D3:|
|:dfa afd|gfg fef|dfa afd|cde ecA|
dfa afd|gfg fef|BdB AFA|DED D3:|
P:Variations:
|:DFA d2e|fdB BAF|ABA AFD|EFE GFE|
DFA d2e|fdB BAF|~A3 dAF|DED D3:|
|:dfa afd|gbg faf|dfa afd|cee ecA|
dfa afd|~g3 faf|B/c/dB AFA|DED D3:|

